src/assets/icons/box.svg

<svg width="14" height="14" viewBox="0 0 14 14" fill="none" xmlns="http://www.w3.org/2000/svg">
<g id="box">
<g clip-path="url(#clip0_156_4527)">
<path id="Vector" d="M13.9828 10.6138C13.9868 10.5858 13.9996 10.561 13.9996 10.5314V3.4694C13.9988 3.3758 13.974 3.28702 13.9316 3.20543C13.8684 3.08303 13.7716 2.97983 13.6444 2.92143L7.24479 0.052797C7.0888 -0.017599 6.91041 -0.017599 6.75442 0.052797L0.35478 2.92143C0.145991 3.01903 0.00519884 3.23901 0.000399113 3.4694V10.5314C0.0155982 10.7674 0.144392 10.9698 0.35478 11.0794L6.75442 13.948C6.83281 13.9832 6.91601 14 7 14C7.084 14 7.16719 13.9832 7.24559 13.948L13.6452 11.0794C13.8164 10.981 13.9708 10.8218 13.9828 10.6138ZM1.19953 4.39575L6.39923 6.72682V12.4729L1.19953 10.1426V4.39575ZM7.59917 6.72762L12.7989 4.39656V10.1434L7.59917 12.4737V6.72762ZM6.9992 1.25833L11.9325 3.4694L6.9992 5.68127L2.06588 3.4694L6.9992 1.25833Z" fill="black"/>
</g>
</g>
<defs>
<clipPath id="clip0_156_4527">
<rect width="14" height="14" fill="white"/>
</clipPath>
</defs>
</svg>

<svg xmlns="http://www.w3.org/2000/svg" fill="none" viewBox="0 0 14 14"><g clip-path="url(#a)"><path fill="#000" d="M13.983 10.614c.004-.028.017-.053.017-.083V3.47a.6.6 0 0 0-.068-.264.62.62 0 0 0-.288-.284L7.244.053a.6.6 0 0 0-.49 0L.354 2.92A.63.63 0 0 0 0 3.47v7.062a.65.65 0 0 0 .355.548l6.4 2.869a.6.6 0 0 0 .49 0l6.4-2.869c.171-.098.326-.257.338-.465M1.2 4.396l5.2 2.33v5.747l-5.2-2.33zm6.4 2.332 5.199-2.331v5.746l-5.2 2.33zM7 1.258l4.932 2.211L7 5.681 2.066 3.47z"/></g><defs><clipPath id="a"><path fill="#fff" d="M0 0h14v14H0z"/></clipPath></defs></svg>
